X: 1824
T: Bonaparte Crossing The Rhine
M:C
L:1/8
B:O'Neill's 1824
Z:"Transcribed by Bob Safranek, rjs@gsp.org"
K:Am
(E^F/^G/) | A>B{d}cB AGEG| cdec d2 (e^f/^g/) | a>=ged cAGE| G>^FGA G2 (E^F/^G/)|
             AB{d}cB AGEG| cdec d2 (e^f/^g/) | a>=ged cAGE| A2 A>B A2 ||
(e^f/^g/) |  a>=ged cde^f| gega g2 (e^f/^g/) | a>=ged cAGE| G>^FGA G2 (E^F/^G/)|
             AB{d}cB AGEG| cdec d2 (e^f/^g/) | a>=ged cAGE| A2 A>B A2 |]


